Hatter-kde/actions/16/show-menu.svg

<svg xmlns="http://www.w3.org/2000/svg" viewBox="0 0 16 16">
  <defs id="defs3051">
    <style type="text/css" id="current-color-scheme">
      .ColorScheme-Text {
        color:#363636;
      }
      </style>
  </defs>
 <path style="fill:currentColor;fill-opacity:1;stroke:none" 
     d="M 2 2 L 2 5 L 5 5 L 5 2 L 2 2 z M 6 2 L 6 3 L 10.878906 3 L 11.878906 2 L 6 2 z M 13.314453 2 L 2 13.294922 L 2.7148438 14 L 14 2.6972656 L 13.314453 2 z M 6 4 L 6 5 L 8.8789062 5 L 9.8789062 4 L 6 4 z M 14 4.1210938 L 13.121094 5 L 14 5 L 14 4.1210938 z M 2 7 L 2 10 L 3.8789062 10 L 5 8.8789062 L 5 7 L 2 7 z M 6 7 L 6 7.8789062 L 6.8789062 7 L 6 7 z M 11.121094 7 L 10.121094 8 L 14 8 L 14 7 L 11.121094 7 z M 9.1210938 9 L 8.1210938 10 L 14 10 L 14 9 L 9.1210938 9 z M 6.1210938 12 L 5.1210938 13 L 14 13 L 14 12 L 6.1210938 12 z "
     class="ColorScheme-Text"
     />
</svg>

<?xml version="1.0" encoding="UTF-8"?>
<svg viewBox="0 0 16 16" xmlns="http://www.w3.org/2000/svg">
 <defs id="defs3051">
  <style id="current-color-scheme" type="text/css">.ColorScheme-Text {
        color:#363636;
      }</style>
 </defs>
 <path class="ColorScheme-Text" d="m2 2v3h3v-3h-3zm4 0v1h4.8789l1-1h-5.8789zm7.3145 0-11.314 11.295 0.71484 0.70508 11.285-11.303-0.68555-0.69727zm-7.3145 2v1h2.8789l1-1h-3.8789zm8 0.12109-0.87891 0.87891h0.87891v-0.87891zm-12 2.8789v3h1.8789l1.1211-1.1211v-1.8789h-3zm4 0v0.87891l0.87891-0.87891h-0.87891zm5.1211 0-1 1h3.8789v-1h-2.8789zm-2 2-1 1h5.8789v-1h-4.8789zm-3 3-1 1h8.8789v-1h-7.8789z" fill="currentColor"/>
</svg>
